brandFactory_export/1.Light/Progreso _1Light.svg

<?xml version="1.0" encoding="UTF-8"?>
<svg width="24px" height="24px" viewBox="0 0 24 24" version="1.1" xmlns="http://www.w3.org/2000/svg" xmlns:xlink="http://www.w3.org/1999/xlink">
    <title>1.Light/Progreso _1Light</title>
    <g id="Symbols" stroke="none" stroke-width="1" fill="none" fill-rule="evenodd">
        <g id="1.Light/Progreso-_1Light" fill="#5CB615" fill-rule="nonzero">
            <path d="M23.6235294,4.49411765 L23.6235294,8.90420168 C23.6235294,9.17983193 23.3915966,9.39831933 23.1159664,9.39831933 C22.8403361,9.40504202 22.6151261,9.18655462 22.6084034,8.91092437 L22.6084034,5.90252101 L15.4420168,15.8386555 C15.297479,16.0268908 15.0453782,16.097479 14.8235294,16.0067227 L5.78823529,12.1344538 L0.954621849,20.4840336 C0.806722689,20.7193277 0.500840336,20.8 0.255462185,20.6722689 C0.0168067227,20.5378151 -0.0705882353,20.2352941 0.0638655462,19.9966387 L5.12605042,11.2605042 C5.25714286,11.0352941 5.5394958,10.9445378 5.77815126,11.0521008 L14.8436975,14.9378151 L22.0201681,4.99159664 L18.6386555,4.99159664 C18.3630252,4.99159664 18.1378151,4.7697479 18.1310924,4.49411765 C18.1344538,4.21848739 18.3630252,3.99663866 18.6386555,3.9999623 L23.1159664,3.9999623 C23.3915966,3.9999623 23.6235294,4.21512605 23.6235294,4.49411765" id="Path"></path>
        </g>
    </g>
</svg>

<svg width="24" height="24" viewBox="0 0 24 24" xmlns="http://www.w3.org/2000/svg"><path d="M23.624 4.494v4.41a.502.502 0 01-.508.494.496.496 0 01-.508-.487V5.903l-7.166 9.936a.527.527 0 01-.618.168l-9.036-3.873-4.833 8.35a.535.535 0 01-.7.188.497.497 0 01-.191-.675l5.062-8.736a.512.512 0 01.652-.209l9.066 3.886 7.176-9.946H18.64a.51.51 0 01-.508-.498A.502.502 0 0118.64 4h4.477a.5.5 0 01.508.494" fill="#5CB615" fill-rule="nonzero"/></svg>
